X:101
T:Heigh-ho - Hard
%%VWML:SBG-1-2-685-0
F:http://www.vwml.org/record/SBG/1/2/685
Z:Original Sibelius transcriptions by M. & S. Graebe
M:6/8
I:linebreak $
K:G
V:1 treble nm="P1"
V:1
 D/ D/ | E2 D BA G | E2 E D2 D/ D/ | E2 D A2 A | B2 A G2 D/ D/ |$ EF G A2 A | c2 B G2 D/ D/ | %7
 A2 D A2 A | B2 A G2 x | %9




